z_dist/img/icons/num/num2.svg

<svg width="45" height="50" viewBox="0 0 45 50" fill="none" xmlns="http://www.w3.org/2000/svg">
<g clip-path="url(#clip0_406_602)">
<path d="M9.43213 0V7.57143L34.2721 25L9.43213 42.4286V50L45.0001 25L9.43213 0Z" fill="#E0BEA2"/>
<path d="M0 7.35718V42.5715L25.056 25L0 7.35718Z" fill="#E0BEA2"/>
<path d="M5.46671 29C4.90917 28.9927 4.41481 28.8683 3.98364 28.6269C3.55247 28.3855 3.19192 28.0672 2.902 27.6722C2.61208 27.2771 2.39277 26.8528 2.24409 26.3992C2.10285 25.9383 2.03223 25.4883 2.03223 25.0494C2.03223 24.5812 2.11028 24.1129 2.2664 23.6447C2.42251 23.1765 2.64924 22.7522 2.9466 22.3717C3.2514 21.984 3.61566 21.6767 4.0394 21.4499C4.46313 21.2158 4.9389 21.0988 5.46671 21.0988C6.03913 21.0988 6.5372 21.2231 6.96094 21.4719C7.39211 21.7206 7.75266 22.0425 8.04258 22.4376C8.3325 22.8326 8.54809 23.2606 8.68934 23.7215C8.83801 24.1824 8.91235 24.6251 8.91235 25.0494C8.91235 25.5249 8.8343 25.9968 8.67818 26.465C8.52207 26.9259 8.29162 27.3466 7.98683 27.727C7.68947 28.1075 7.32892 28.4147 6.90519 28.6488C6.48145 28.8756 6.00196 28.9927 5.46671 29ZM3.58221 25.0494C3.58964 25.3567 3.63053 25.6639 3.70487 25.9712C3.78664 26.2711 3.90187 26.5492 4.05055 26.8052C4.20666 27.0613 4.40366 27.2698 4.64155 27.4307C4.87943 27.5844 5.15449 27.6612 5.46671 27.6612C5.80124 27.6612 6.08745 27.577 6.32534 27.4088C6.56322 27.2405 6.75651 27.0247 6.90519 26.7613C7.0613 26.4979 7.17653 26.2163 7.25086 25.9163C7.3252 25.6164 7.36237 25.3274 7.36237 25.0494C7.36237 24.7421 7.32149 24.4385 7.23971 24.1385C7.16537 23.8313 7.04643 23.5496 6.88288 23.2936C6.72677 23.0375 6.52977 22.8326 6.29188 22.679C6.06143 22.5181 5.78637 22.4376 5.46671 22.4376C5.13962 22.4376 4.85713 22.5217 4.61924 22.69C4.38136 22.8583 4.18436 23.0741 4.02824 23.3374C3.87957 23.6008 3.76806 23.8825 3.69372 24.1824C3.61938 24.4824 3.58221 24.7714 3.58221 25.0494Z" fill="white"/>
<path d="M9.8398 28.8903C9.8398 28.444 9.86953 28.0526 9.92901 27.716C9.98848 27.3722 10.0814 27.0686 10.2078 26.8052C10.3416 26.5345 10.5126 26.2968 10.7207 26.0919C10.9289 25.8871 11.1853 25.6932 11.4901 25.5103C11.7503 25.364 12.0179 25.2213 12.293 25.0823C12.5755 24.9433 12.8357 24.797 13.0736 24.6433C13.3189 24.4897 13.5159 24.3141 13.6646 24.1166C13.8207 23.9191 13.8987 23.6776 13.8987 23.3923C13.8987 23.1728 13.8504 22.9863 13.7538 22.8326C13.6646 22.6717 13.5308 22.5473 13.3523 22.4595C13.1814 22.3717 12.9732 22.3278 12.7279 22.3278C12.4454 22.3278 12.1815 22.3791 11.9362 22.4815C11.6983 22.5766 11.4827 22.6973 11.2894 22.8436C11.1036 22.9826 10.9437 23.1216 10.8099 23.2606L9.87325 22.2949C9.97733 22.1779 10.1186 22.0462 10.297 21.8999C10.4828 21.7535 10.7021 21.6109 10.9549 21.4719C11.2151 21.3329 11.5087 21.2195 11.8358 21.1317C12.1629 21.0439 12.5235 21 12.9175 21C13.4973 21 13.9842 21.1024 14.3782 21.3073C14.7722 21.5048 15.0696 21.7791 15.2703 22.1303C15.4785 22.4742 15.5825 22.8729 15.5825 23.3265C15.5825 23.6557 15.5268 23.9483 15.4153 24.2044C15.3112 24.4531 15.1662 24.6726 14.9804 24.8628C14.7945 25.053 14.5864 25.225 14.3559 25.3786C14.1255 25.5249 13.8876 25.6676 13.6423 25.8066C13.2557 26.0114 12.9435 26.1907 12.7056 26.3443C12.4677 26.4979 12.2781 26.6406 12.1369 26.7723C12.0031 26.904 11.899 27.0357 11.8247 27.1674C11.7578 27.2917 11.6983 27.4234 11.6462 27.5624H15.5937V28.8903H9.8398Z" fill="white"/>
</g>
<defs>
<clipPath id="clip0_406_602">
<rect width="45" height="50" fill="white"/>
</clipPath>
</defs>
</svg>

<svg width="45" height="50" fill="none" xmlns="http://www.w3.org/2000/svg"><g clip-path="url(#clip0_406_602)"><path d="M9.432 0v7.571L34.272 25 9.432 42.429V50L45 25 9.432 0z" fill="#E0BEA2"/><path d="M0 7.357v35.215L25.056 25 0 7.357z" fill="#E0BEA2"/><path d="M5.467 29c-.558-.007-1.052-.132-1.483-.373a3.365 3.365 0 01-1.082-.955c-.29-.395-.51-.82-.658-1.273a4.594 4.594 0 01-.212-1.35c0-.468.078-.936.234-1.404a4.24 4.24 0 01.68-1.273 3.45 3.45 0 011.093-.922c.424-.234.9-.351 1.428-.351.572 0 1.07.124 1.494.373.431.249.792.57 1.082.966.29.395.505.823.646 1.284.149.46.223.903.223 1.327 0 .476-.078.948-.234 1.416-.156.46-.386.882-.691 1.262a3.53 3.53 0 01-1.082.922A3.092 3.092 0 015.467 29zm-1.885-3.95c.008.307.049.614.123.921.082.3.197.578.346.834a2 2 0 00.59.626c.238.153.513.23.826.23.334 0 .62-.084.858-.252.238-.168.432-.384.58-.648a3.12 3.12 0 00.346-.845 3.448 3.448 0 00-.011-1.778 2.765 2.765 0 00-.357-.844 1.888 1.888 0 00-.591-.615 1.405 1.405 0 00-.825-.241c-.327 0-.61.084-.848.252a2.081 2.081 0 00-.59.647 3.602 3.602 0 00-.446 1.712zm6.258 3.84c0-.446.03-.837.089-1.174.06-.344.152-.647.279-.91.134-.271.305-.51.513-.714a4.1 4.1 0 01.77-.582c.26-.146.527-.289.802-.428.283-.139.543-.285.78-.439.246-.153.443-.329.592-.526.156-.198.234-.44.234-.725 0-.22-.049-.406-.145-.56a.897.897 0 00-.402-.373 1.354 1.354 0 00-.624-.131c-.283 0-.546.051-.792.154a2.768 2.768 0 00-.647.362 3.943 3.943 0 00-.48.417l-.936-.966a3.8 3.8 0 01.424-.395 4.145 4.145 0 012.62-.9c.58 0 1.067.102 1.461.307.394.198.692.472.892.823.209.344.313.743.313 1.197 0 .329-.056.621-.168.877-.104.25-.249.469-.435.659-.186.19-.394.362-.624.516-.23.146-.468.289-.714.428a12.98 12.98 0 00-.936.537 4.124 4.124 0 00-.57.428 1.814 1.814 0 00-.311.395 3.208 3.208 0 00-.179.395h3.948v1.328H9.84z" fill="#fff"/></g><defs><clipPath id="clip0_406_602"><path fill="#fff" d="M0 0h45v50H0z"/></clipPath></defs></svg>
